X: 8233
T: Copycat, The
R: jig
M: 6/8
K: Aminor
Ace dc AG|F/G/AF GF D2|Acd e2 eA|agf e2 e2|
Ace dc AG|F/G/AF G2 BG|A/B/cA B2 dB|ceg a2 a2:|
|:c'ba g2 bg|agf e2 e2|agf ec A2|ded cA BG|
ABc BG GE|FAF G2 BG|AcA B2 dB|ceg a2 ab:|

